build/category/MaleSolid.svg

<svg xmlns="http://www.w3.org/2000/svg" fill="none" viewBox="0 0 24 24" focusable="false"><path d="M0 0H24V24H0z"/><path fill="#74767B" fill-rule="evenodd" d="M11.9998 2C11.1714 2 10.4998 2.67157 10.4998 3.5L10.4998 4.5C10.4998 5.32843 11.1714 6 11.9998 6C12.8283 6 13.4998 5.32843 13.4998 4.5L13.4998 3.5C13.4998 2.67157 12.8283 2 11.9998 2ZM9.35652 7.77202C8.67147 8.16695 8.14356 8.85887 7.76805 9.65336C7.17344 10.9114 6.86719 12.5914 6.86719 14.3827C6.86719 14.7417 7.1582 15.0327 7.51719 15.0327C7.87617 15.0327 8.16719 14.7417 8.16719 14.3827C8.16719 12.7174 8.45509 11.242 8.94339 10.2089C9.03507 10.0149 9.13074 9.84185 9.22962 9.68863L10.0205 14.9118C10.0262 14.9494 10.038 14.9848 10.0549 15.017L10.0549 21.3675C10.0549 21.7265 10.3459 22.0175 10.7049 22.0175C11.0639 22.0175 11.3549 21.7265 11.3549 21.3675L11.3549 15.1952L12.6448 15.1952L12.6448 21.3675C12.6448 21.7265 12.9358 22.0175 13.2948 22.0175C13.6538 22.0175 13.9448 21.7265 13.9448 21.3675L13.9448 15.0345C13.9671 14.9977 13.9825 14.9561 13.9892 14.9113L14.7788 9.6453C14.8878 9.80899 14.993 9.99634 15.0934 10.2088C15.5817 11.2419 15.8696 12.7173 15.8696 14.3827C15.8696 14.7417 16.1606 15.0327 16.5196 15.0327C16.8786 15.0327 17.1696 14.7417 17.1696 14.3827C17.1696 12.5914 16.8633 10.9114 16.2687 9.6533C15.7805 8.62024 15.0345 7.76061 14.0205 7.50178C13.5765 7.37087 12.9326 7.27319 11.9997 7.27319C10.4805 7.27319 9.72779 7.53222 9.35652 7.77202Z"/></svg>

<svg xmlns="http://www.w3.org/2000/svg" fill="none" viewBox="0 0 24 24" focusable="false"><path fill="#74767B" fill-rule="evenodd" d="M12 2c-.83 0-1.5.67-1.5 1.5v1c0 .82.67 1.5 1.5 1.5.82 0 1.5-.68 1.5-1.5v-1c0-.83-.68-1.5-1.5-1.5M9.35 7.77c-.68.39-1.21 1.08-1.59 1.88-.59 1.26-.9 2.94-.9 4.73 0 .36.29.65.65.65s.65-.29.65-.65c0-1.67.29-3.14.78-4.18.09-.19.19-.36.28-.52l.8 5.23c0 .03.01.07.03.1v6.35c0 .36.29.65.65.65s.65-.29.65-.65v-6.17h1.29v6.17c0 .36.29.65.65.65s.65-.29.65-.65v-6.33c.02-.04.04-.08.04-.12l.79-5.27c.11.16.22.35.32.56.49 1.04.77 2.51.77 4.18 0 .36.3.65.65.65.36 0 .65-.29.65-.65 0-1.79-.3-3.47-.9-4.73-.48-1.03-1.23-1.89-2.24-2.15-.45-.13-1.09-.23-2.03-.23-1.51 0-2.27.26-2.64.5"/></svg>
